humanity-icon-theme/Humanity/actions/32/gtk-info.svg

<?xml version="1.0" encoding="UTF-8" standalone="no"?>
<!-- Created with Inkscape (http://www.inkscape.org/) -->
<svg
   xmlns:svg="http://www.w3.org/2000/svg"
   xmlns="http://www.w3.org/2000/svg"
   xmlns:xlink="http://www.w3.org/1999/xlink"
   version="1.0"
   width="32"
   height="32"
   id="svg2695">
  <defs
     id="defs2697">
    <linearGradient
       id="linearGradient8838">
      <stop
         id="stop8840"
         style="stop-color:#000000;stop-opacity:1"
         offset="0" />
      <stop
         id="stop8842"
         style="stop-color:#000000;stop-opacity:0"
         offset="1" />
    </linearGradient>
    <radialGradient
       cx="62.625"
       cy="4.625"
       r="10.625"
       fx="62.625"
       fy="4.625"
       id="radialGradient2693"
       xlink:href="#linearGradient8838"
       gradientUnits="userSpaceOnUse"
       gradientTransform="matrix(1.5058824,0,0,0.37647,-78.305888,26.258824)" />
    <linearGradient
       id="linearGradient2490-182-124">
      <stop
         id="stop2788"
         style="stop-color:#1f4b6a;stop-opacity:1"
         offset="0" />
      <stop
         id="stop2790"
         style="stop-color:#4083c2;stop-opacity:1"
         offset="1" />
    </linearGradient>
    <linearGradient
       x1="18.379412"
       y1="44.980297"
       x2="18.379412"
       y2="3.0816143"
       id="linearGradient2690"
       xlink:href="#linearGradient2490-182-124"
       gradientUnits="userSpaceOnUse"
       gradientTransform="matrix(0.7126612,0,0,0.7126613,-1.1038706,-1.1038704)" />
    <linearGradient
       id="linearGradient3242-187-536">
      <stop
         id="stop2778"
         style="stop-color:#8badea;stop-opacity:1"
         offset="0" />
      <stop
         id="stop2780"
         style="stop-color:#6396cd;stop-opacity:1"
         offset="0.26238" />
      <stop
         id="stop2782"
         style="stop-color:#3b7caf;stop-opacity:1"
         offset="0.66093999" />
      <stop
         id="stop2784"
         style="stop-color:#194c70;stop-opacity:1"
         offset="1" />
    </linearGradient>
    <radialGradient
       cx="23.895569"
       cy="3.9900031"
       r="20.397499"
       fx="23.895569"
       fy="3.9900031"
       id="radialGradient2688"
       xlink:href="#linearGradient3242-187-536"
       gradientUnits="userSpaceOnUse"
       gradientTransform="matrix(0,1.7008781,-2.245129,0,24.958071,-40.236051)" />
    <linearGradient
       id="linearGradient4873">
      <stop
         id="stop4875"
         style="stop-color:#ffffff;stop-opacity:1"
         offset="0" />
      <stop
         id="stop4877"
         style="stop-color:#ffffff;stop-opacity:0"
         offset="1" />
    </linearGradient>
    <linearGradient
       x1="63.397362"
       y1="-12.489107"
       x2="63.397362"
       y2="5.4675598"
       id="linearGradient2685"
       xlink:href="#linearGradient4873"
       gradientUnits="userSpaceOnUse"
       gradientTransform="matrix(1.5436509,0,0,1.5436158,-80.015712,21.419381)" />
  </defs>
  <g
     id="layer1">
    <path
       d="M 31.999998,28 C 31.999998,30.209139 24.836553,32 15.999997,32 C 7.1634417,32 -3.2e-06,30.209139 -3.2e-06,28 C -3.2e-06,25.790861 7.1634417,24 15.999997,24 C 24.836553,24 31.999998,25.790861 31.999998,28 L 31.999998,28 z"
       id="path8836"
       style="opacity:0.3;fill:url(#radialGradient2693);fill-opacity:1;fill-rule:evenodd;stroke:none;stroke-width:0.99999988;stroke-linecap:butt;stroke-linejoin:round;marker:none;marker-start:none;marker-mid:none;marker-end:none;stroke-miterlimit:4;stroke-dasharray:none;stroke-dashoffset:0;stroke-opacity:1;visibility:visible;display:inline;overflow:visible" />
    <path
       d="M 16.000001,1.5017975 C 8.0003938,1.5017975 1.5017978,8.0003912 1.5017978,15.999999 C 1.5017978,23.999608 8.0003938,30.498205 16.000001,30.498202 C 23.999606,30.498202 30.49821,23.999608 30.498202,15.999999 C 30.498202,8.0003912 23.999606,1.5017975 16.000001,1.5017975 z"
       id="path2555"
       style="fill:url(#radialGradient2688);fill-opacity:1;stroke:url(#linearGradient2690);stroke-width:1.00365412;stroke-linecap:round;stroke-linejoin:round;stroke-miterlimit:4;stroke-dasharray:none;stroke-dashoffset:0;stroke-opacity:1" />
    <path
       d="M 29.5,15.999522 C 29.5,23.455607 23.455399,29.5 16.000172,29.5 C 8.5442598,29.5 2.5,23.455539 2.5,15.999522 C 2.5,8.5437822 8.5442598,2.5000011 16.000172,2.5000011 C 23.455399,2.5000011 29.5,8.5437822 29.5,15.999522 L 29.5,15.999522 z"
       id="path8655"
       style="opacity:0.4;fill:none;fill-opacity:1;fill-rule:nonzero;stroke:url(#linearGradient2685);stroke-width:1;stroke-miterlimit:4;stroke-dasharray:none;stroke-opacity:1" />
    <path
       d="M 11.8,14.787587 C 11.991223,15.307419 12.206458,15.728782 12.664931,15.152626 C 13.233336,14.814439 15.13785,13.332065 14.94728,14.784084 C 14.337456,17.470959 13.595164,20.129578 13.027599,22.82473 C 12.434128,24.300447 13.781784,25.635295 15.188835,24.675629 C 16.684439,24.05908 17.971402,23.054828 19.286181,22.133578 C 19.106788,21.693628 18.98722,21.061643 18.49154,21.636997 C 17.840686,21.932411 16.41915,23.32518 16.155055,22.176458 C 16.701766,19.267058 17.714698,16.465358 18.362182,13.579156 C 18.958035,12.252087 17.98489,10.575287 16.528203,11.673056 C 14.783055,12.433124 13.323653,13.674727 11.8,14.787587 z M 18.276807,5.0022796 C 16.49624,4.9077863 15.565298,7.7781103 17.257359,8.5635603 C 18.630116,9.1265413 20.124803,7.7186033 19.789444,6.3117493 C 19.68537,5.5791885 19.02767,4.9776374 18.276808,5.0022796 L 18.276807,5.0022796 z"
       id="text3482"
       style="font-size:40px;font-style:normal;font-variant:normal;font-weight:bold;font-stretch:normal;text-align:start;line-height:100%;writing-mode:lr-tb;text-anchor:start;opacity:0.2;fill:#000000;fill-opacity:1;stroke:none;stroke-width:1px;stroke-linecap:butt;stroke-linejoin:miter;stroke-opacity:1;font-family:URW Palladio L;-inkscape-font-specification:URW Palladio L Bold" />
    <path
       d="M 11.8,15.787587 C 11.991223,16.307419 12.206458,16.728782 12.664931,16.152626 C 13.233336,15.814439 15.13785,14.332065 14.94728,15.784084 C 14.337456,18.470959 13.595164,21.129578 13.027599,23.82473 C 12.434128,25.300447 13.781784,26.635295 15.188835,25.675629 C 16.684439,25.05908 17.971402,24.054828 19.286181,23.133578 C 19.106788,22.693628 18.98722,22.061643 18.49154,22.636997 C 17.840686,22.932411 16.41915,24.32518 16.155055,23.176458 C 16.701766,20.267058 17.714698,17.465358 18.362182,14.579156 C 18.958035,13.252087 17.98489,11.575287 16.528203,12.673056 C 14.783055,13.433124 13.323653,14.674727 11.8,15.787587 z M 18.276807,6.0022796 C 16.49624,5.9077863 15.565298,8.7781103 17.257359,9.5635603 C 18.630116,10.126541 20.124803,8.7186033 19.789444,7.3117493 C 19.68537,6.5791883 19.02767,5.9776374 18.276808,6.0022796 L 18.276807,6.0022796 z"
       id="path3536"
       style="font-size:40px;font-style:normal;font-variant:normal;font-weight:bold;font-stretch:normal;text-align:start;line-height:100%;writing-mode:lr-tb;text-anchor:start;fill:#ffffff;fill-opacity:1;stroke:none;stroke-width:1px;stroke-linecap:butt;stroke-linejoin:miter;stroke-opacity:1;font-family:URW Palladio L;-inkscape-font-specification:URW Palladio L Bold" />
  </g>
</svg>

<?xml version="1.0" encoding="UTF-8" standalone="no"?>
<!-- Created with Inkscape (http://www.inkscape.org/) -->
<svg id="svg2695" xmlns="http://www.w3.org/2000/svg" height="32" width="32" version="1.0" xmlns:xlink="http://www.w3.org/1999/xlink">
 <defs id="defs2697">
  <radialGradient id="radialGradient2693" gradientUnits="userSpaceOnUse" cy="4.625" cx="62.625" gradientTransform="matrix(1.5059 0 0 .37647 -78.306 26.259)" r="10.625">
   <stop id="stop8840" offset="0"/>
   <stop id="stop8842" style="stop-opacity:0" offset="1"/>
  </radialGradient>
  <linearGradient id="linearGradient2690" y2="3.0816" gradientUnits="userSpaceOnUse" x2="18.379" gradientTransform="matrix(.71266 0 0 .71266 -1.1039 -1.1039)" y1="44.98" x1="18.379">
   <stop id="stop2788" style="stop-color:#1f4b6a" offset="0"/>
   <stop id="stop2790" style="stop-color:#4083c2" offset="1"/>
  </linearGradient>
  <radialGradient id="radialGradient2688" gradientUnits="userSpaceOnUse" cy="3.99" cx="23.896" gradientTransform="matrix(0 1.7009 -2.2451 0 24.958 -40.236)" r="20.397">
   <stop id="stop2778" style="stop-color:#8badea" offset="0"/>
   <stop id="stop2780" style="stop-color:#6396cd" offset=".26238"/>
   <stop id="stop2782" style="stop-color:#3b7caf" offset=".66094"/>
   <stop id="stop2784" style="stop-color:#194c70" offset="1"/>
  </radialGradient>
  <linearGradient id="linearGradient2685" y2="5.4676" gradientUnits="userSpaceOnUse" x2="63.397" gradientTransform="matrix(1.5437 0 0 1.5436 -80.016 21.419)" y1="-12.489" x1="63.397">
   <stop id="stop4875" style="stop-color:#fff" offset="0"/>
   <stop id="stop4877" style="stop-color:#fff;stop-opacity:0" offset="1"/>
  </linearGradient>
 </defs>
 <g id="layer1">
  <path id="path8836" style="opacity:.3;fill-rule:evenodd;fill:url(#radialGradient2693)" d="m32 28c0 2.209-7.163 4-16 4-8.8366 0-16-1.791-16-4-0.0000032-2.209 7.1634-4 16-4 8.837 0 16 1.791 16 4z"/>
  <path id="path2555" style="stroke-linejoin:round;stroke:url(#linearGradient2690);stroke-linecap:round;stroke-width:1.0037;fill:url(#radialGradient2688)" d="m16 1.5018c-7.9996 0-14.498 6.4986-14.498 14.498-0.0002 8 6.4984 14.498 14.498 14.498 8 0 14.498-6.498 14.498-14.498 0-7.9996-6.498-14.498-14.498-14.498z"/>
  <path id="path8655" style="opacity:.4;stroke:url(#linearGradient2685);fill:none" d="m29.5 16c0 7.456-6.045 13.5-13.5 13.5-7.4557 0-13.5-6.044-13.5-13.5 0-7.4562 6.0443-13.5 13.5-13.5 7.455 0 13.5 6.0438 13.5 13.5z"/>
  <path id="text3482" style="opacity:.2" d="m11.8 14.788c0.191 0.519 0.406 0.941 0.865 0.365 0.568-0.339 2.473-1.821 2.282-0.369-0.61 2.687-1.352 5.346-1.919 8.041-0.594 1.475 0.754 2.81 2.161 1.851 1.495-0.617 2.782-1.621 4.097-2.542-0.179-0.44-0.299-1.072-0.794-0.497-0.651 0.295-2.073 1.688-2.337 0.539 0.547-2.909 1.56-5.711 2.207-8.597 0.596-1.327-0.377-3.004-1.834-1.906-1.745 0.76-3.204 2.002-4.728 3.115zm6.477-9.7857c-1.781-0.0945-2.712 2.7758-1.02 3.5613 1.373 0.5629 2.868-0.845 2.532-2.2519-0.104-0.7325-0.761-1.3341-1.512-1.3094z"/>
  <path id="path3536" style="fill:#fff" d="m11.8 15.788c0.191 0.519 0.406 0.941 0.865 0.365 0.568-0.339 2.473-1.821 2.282-0.369-0.61 2.687-1.352 5.346-1.919 8.041-0.594 1.475 0.754 2.81 2.161 1.851 1.495-0.617 2.782-1.621 4.097-2.542-0.179-0.44-0.299-1.072-0.794-0.497-0.651 0.295-2.073 1.688-2.337 0.539 0.547-2.909 1.56-5.711 2.207-8.597 0.596-1.327-0.377-3.004-1.834-1.906-1.745 0.76-3.204 2.002-4.728 3.115zm6.477-9.7857c-1.781-0.0945-2.712 2.7758-1.02 3.5613 1.373 0.5634 2.868-0.845 2.532-2.2519-0.104-0.7325-0.761-1.3341-1.512-1.3094z"/>
 </g>
</svg>
